X: 3
T:Boolavogue
M:3/4
L:1/8
S: Ottawa Celtic Jam <ottawajam@yahoo.ca> 2002-5-2
K:G Major
D2 \
 | G4 D2 | G4 Bd | g4 f2 | e2 g3e | d4 e2 | B4 AG | A4 G2 | E4 F2 |
 | G4 D2 | G4 Bd | g4 f2 | e g4 e | d4 e2 | B4 AG | A4 G2 | G4 d2 |
 | d4 B2 | d4 ef | g4 f2 | e g4 e | d4 e2 | B4 AG | A4 G2 | E4 F2 |
 | G4 D2 | G4 Bd | g4 f2 | f g4 f | d4 e2 | B4 AG | A4 G2 | G4 :|
